src/assets/filled/Litecoin.svg

<?xml version="1.0" encoding="UTF-8"?>
<svg width="24" height="24" viewBox="0 0 24 24" xmlns="http://www.w3.org/2000/svg">
 <path d="m12 2c-5.52 0-10 4.48-10 10s4.48 10 10 10 10-4.48 10-10-4.48-10-10-10zm3.82 14.32c-0.09 0.48-0.5 0.82-0.98 0.82h-5.54c-0.66 0-1.14-0.64-0.95999-1.27l0.83999-2.95-1.71 0.34c-0.05 0.01-0.09999 0.01-0.14999 0.01-0.35 0-0.66001-0.25-0.73001-0.6-0.08-0.41 0.17999-0.8 0.58999-0.88l2.47-0.49 1.31-4.57c0.06-0.21 0.26-0.36 0.48-0.36h1.36c0.66 0 1.14 0.62 0.97 1.26l-0.81 3.01 1.93-0.39c0.4-0.08 0.8 0.18 0.88 0.59s-0.18 0.8-0.59 0.88l-2.66 0.53-0.55 2.05h3.03c0.62 0 1.09 0.56 0.98 1.18l-0.16 0.84z"/>
</svg>

<svg width="24" height="24" viewBox="0 0 24 24"  xmlns="http://www.w3.org/2000/svg">
<path d="M12 2C6.48 2 2 6.48 2 12C2 17.52 6.48 22 12 22C17.52 22 22 17.52 22 12C22 6.48 17.52 2 12 2ZM15.82 16.32C15.73 16.8 15.32 17.14 14.84 17.14H9.29999C8.63999 17.14 8.16 16.5 8.34 15.87L9.17999 12.92L7.47 13.26C7.42 13.27 7.37001 13.27 7.32001 13.27C6.97001 13.27 6.66 13.02 6.59 12.67C6.51 12.26 6.76999 11.87 7.17999 11.79L9.64999 11.3L10.96 6.73C11.02 6.52 11.22 6.37 11.44 6.37H12.8C13.46 6.37 13.94 6.99 13.77 7.63L12.96 10.64L14.89 10.25C15.29 10.17 15.69 10.43 15.77 10.84C15.85 11.25 15.59 11.64 15.18 11.72L12.52 12.25L11.97 14.3H15C15.62 14.3 16.09 14.86 15.98 15.48L15.82 16.32Z" />
</svg>
